X:481
T: Reue der jungen Ehefrau (190), S. 413f
N: T0369
O: Luxemburg
S: Singendes Volk, Esch-Alzette, 1937 posth.]
N: Tadler, hhh Nikolaus Schroeder, 26.2.1933
R: Hochzeits-, Ehestandslied]
M: 6/8
L: 1/16
K: C
G2 | G4E2G4e2 | c6c4
E2 | G4G2G4A2 | F6z4
F2 | F4F2F4d2 | d6d4
c2 | B2B2A2G4F2 | E6z6 |
c4c2d2c2c2 | A2B2c2G4
G2 | c4G2c2G2c2 | e4z8 |
c4c2d2c2c2 | A2B2c2G4
G2 | c4G2e2e2d2 | c6z4
G2 | G2G2AAG2E2G2 | G2G2AAG2E2
c2 | c2B2BBB2A2B2 | c2c2c2c4

@@@ Tune index: 8535
